_includes/icons/ios-task.svg

<svg fill="#666" height="50" viewBox="0 0 50 50" width="50" xmlns="http://www.w3.org/2000/svg"><path d="m19 1c-.522222 0-1.05461.1913289-1.431641.5683594-.37703.3770305-.568359.9094184-.568359 1.4316406h-8c-1.654 0-3 1.346-3 3v38c0 1.654 1.346 3 3 3h32c1.388 0 2.559391-.946516 2.900391-2.228516.065-.246.099609-.505484.099609-.771484v-38c0-1.654-1.346-3-3-3h-8c0-.5222222-.191329-1.0546101-.568359-1.4316406-.377031-.3770305-.909419-.5683594-1.431641-.5683594zm0 2h12v6h-12zm-10 2h8v2h-7v36h30v-36h-7v-2h8c.551 0 1 .448 1 1v38c0 .552-.449 1-1 1h-32c-.551 0-1-.448-1-1v-38c0-.552.449-1 1-1zm3 4h5c0 .5222222.191329 1.05461.568359 1.431641.377031.37703.909419.568359 1.431641.568359h12c.522222 0 1.05461-.191329 1.431641-.568359.37703-.377031.568359-.9094188.568359-1.431641h5v32h-26zm18.917969 8.001953c-.282375.008875-.562985.057485-.833985.146485-.396961.129563-.76745.353396-1.091796.654296l-.007813-.007812-.003906-.00586-11.654297 11.654297c-.124.124-.213766.277266-.259766.447266l-1.033203 3.849609c-.093.345.006766.713797.259766.966797.19.19.445031.292969.707031.292969.087 0 .174766-.010203.259766-.033203l3.849609-1.033203c.17-.046.323266-.135766.447266-.259766l11.654297-11.654297-.00586-.003906-.005859-.005859c.349839-.377276.589793-.819748.708984-1.289063.15-.592.116438-1.219922-.101562-1.794922-.145-.383-.371688-.743734-.679688-1.052734-.392-.392-.867187-.651297-1.367187-.779297-.2755-.0705-.559422-.100672-.841797-.091797zm-1.111328 2.789063 1.402343 1.402343-10.876953 10.876953-1.917969.515626.515626-1.917969z"/></svg>

<svg xmlns="http://www.w3.org/2000/svg" viewBox="0 0 50 50" width="50" height="50" fill="#666"><path d="M 19 1 C 18.477778 1 17.94539 1.1913289 17.568359 1.5683594 C 17.191329 1.9453899 17 2.4777778 17 3 L 9 3 C 7.346 3 6 4.346 6 6 L 6 44 C 6 45.654 7.346 47 9 47 L 41 47 C 42.388 47 43.559391 46.053484 43.900391 44.771484 C 43.965391 44.525484 44 44.266 44 44 L 44 6 C 44 4.346 42.654 3 41 3 L 33 3 C 33 2.4777778 32.808671 1.9453899 32.431641 1.5683594 C 32.05461 1.1913289 31.522222 1 31 1 L 19 1 z M 19 3 L 31 3 L 31 9 L 19 9 L 19 3 z M 9 5 L 17 5 L 17 7 L 10 7 L 10 43 L 40 43 L 40 7 L 33 7 L 33 5 L 41 5 C 41.551 5 42 5.448 42 6 L 42 44 C 42 44.552 41.551 45 41 45 L 9 45 C 8.449 45 8 44.552 8 44 L 8 6 C 8 5.448 8.449 5 9 5 z M 12 9 L 17 9 C 17 9.5222222 17.191329 10.05461 17.568359 10.431641 C 17.94539 10.808671 18.477778 11 19 11 L 31 11 C 31.522222 11 32.05461 10.808671 32.431641 10.431641 C 32.808671 10.05461 33 9.5222222 33 9 L 38 9 L 38 41 L 12 41 L 12 9 z M 30.917969 17.001953 C 30.635594 17.010828 30.354984 17.059438 30.083984 17.148438 C 29.687023 17.278001 29.316534 17.501834 28.992188 17.802734 L 28.984375 17.794922 L 28.980469 17.789062 L 17.326172 29.443359 C 17.202172 29.567359 17.112406 29.720625 17.066406 29.890625 L 16.033203 33.740234 C 15.940203 34.085234 16.039969 34.454031 16.292969 34.707031 C 16.482969 34.897031 16.738 35 17 35 C 17.087 35 17.174766 34.989797 17.259766 34.966797 L 21.109375 33.933594 C 21.279375 33.887594 21.432641 33.797828 21.556641 33.673828 L 33.210938 22.019531 L 33.205078 22.015625 L 33.199219 22.009766 C 33.549058 21.63249 33.789012 21.190018 33.908203 20.720703 C 34.058203 20.128703 34.024641 19.500781 33.806641 18.925781 C 33.661641 18.542781 33.434953 18.182047 33.126953 17.873047 C 32.734953 17.481047 32.259766 17.22175 31.759766 17.09375 C 31.484266 17.02325 31.200344 16.993078 30.917969 17.001953 z M 29.806641 19.791016 L 31.208984 21.193359 L 20.332031 32.070312 L 18.414062 32.585938 L 18.929688 30.667969 L 29.806641 19.791016 z"/></svg>
